tools/download-figma-icons/icons/outlined-large/upload.svg

<svg width="64" height="64" viewBox="0 0 64 64" fill="none" xmlns="http://www.w3.org/2000/svg">
<path fill-rule="evenodd" clip-rule="evenodd" d="M15.4093 52.8397H50.5001C56.29 52.8397 61 48.1247 61 42.3298C61 36.5398 56.29 31.8298 50.5001 31.8298C50.0621 31.8298 49.6211 31.8568 49.1901 31.9088C48.6991 31.9658 48.2171 31.7838 47.8911 31.4178C47.5631 31.0518 47.4371 30.5478 47.5511 30.0698C47.8221 28.9398 47.9601 27.7478 47.9601 26.5298C47.9601 17.9669 40.9931 10.9999 32.4302 10.9999C23.8722 10.9999 16.9093 17.9669 16.9093 26.5298C16.9093 27.3588 16.2373 28.0298 15.4093 28.0298C8.56632 28.0298 3.00035 33.5928 3.00035 40.4298C3.00035 47.2727 8.56632 52.8397 15.4093 52.8397ZM50.9601 26.5298C50.9601 27.3078 50.9131 28.0778 50.8181 28.8338C58.116 29.0028 64 34.9918 64 42.3298C64 49.7787 57.944 55.8397 50.5001 55.8397H15.4093C6.91233 55.8397 0.000366209 48.9267 0.000366209 40.4298C0.000366209 32.4258 6.14333 25.8279 13.9643 25.0979C14.6973 15.5469 22.6992 7.99995 32.4302 7.99995C42.6471 7.99995 50.9601 16.3129 50.9601 26.5298ZM32.5708 24.4738C32.7548 24.5498 32.9218 24.6608 33.0608 24.7998L40.5607 32.2997C41.1467 32.8857 41.1467 33.8347 40.5607 34.4207C40.2677 34.7137 39.8837 34.8607 39.4997 34.8607C39.1167 34.8607 38.7327 34.7137 38.4397 34.4207L33.4998 29.4817V44.8606C33.4998 45.6886 32.8288 46.3606 31.9998 46.3606C31.1718 46.3606 30.4998 45.6886 30.4998 44.8606V29.4817L25.5608 34.4207C24.9748 35.0067 24.0258 35.0067 23.4398 34.4207C22.8538 33.8347 22.8538 32.8857 23.4398 32.2997L30.9398 24.7998C31.0788 24.6608 31.2458 24.5498 31.4298 24.4738C31.4378 24.4708 31.4458 24.4698 31.4538 24.4668C31.6228 24.4008 31.8068 24.3608 31.9998 24.3608C32.1938 24.3608 32.3768 24.4008 32.5468 24.4668C32.5508 24.4683 32.5548 24.4693 32.5588 24.4703C32.5628 24.4713 32.5668 24.4723 32.5708 24.4738Z" fill="black"/>
</svg>

<svg width="64" height="64" viewBox="0 0 64 64" fill="none" xmlns="http://www.w3.org/2000/svg"><path fill-rule="evenodd" clip-rule="evenodd" d="M15.41 52.84H50.5c5.79 0 10.5-4.715 10.5-10.51 0-5.79-4.71-10.5-10.5-10.5-.438 0-.879.027-1.31.079a1.501 1.501 0 0 1-1.639-1.84 15.2 15.2 0 0 0 .41-3.54c0-8.562-6.968-15.53-15.53-15.53-8.559 0-15.522 6.968-15.522 15.53a1.5 1.5 0 0 1-1.5 1.5C8.566 28.03 3 33.594 3 40.43c0 6.844 5.566 12.41 12.41 12.41Zm35.55-26.31c0 .778-.047 1.548-.142 2.304C58.116 29.003 64 34.992 64 42.33c0 7.449-6.056 13.51-13.5 13.51H15.41C6.911 55.84 0 48.927 0 40.43c0-8.004 6.143-14.602 13.964-15.332C14.697 15.547 22.7 8 32.43 8c10.217 0 18.53 8.313 18.53 18.53Zm-18.39-2.056c.185.076.352.187.49.326l7.5 7.5a1.5 1.5 0 1 1-2.12 2.12l-4.94-4.938V44.86a1.5 1.5 0 1 1-3 0V29.48l-4.94 4.94a1.5 1.5 0 1 1-2.12-2.121l7.5-7.5c.139-.14.306-.25.49-.326l.024-.007A1.5 1.5 0 0 1 32 24.36c.194 0 .377.04.547.106l.012.003a.109.109 0 0 1 .012.004Z" fill="currentColor"/></svg>
